Numix/16/status/indicator-keyboard-Be-9.svg

<?xml version="1.0" encoding="UTF-8" standalone="no"?>
<svg
   xmlns:dc="http://purl.org/dc/elements/1.1/"
   xmlns:cc="http://creativecommons.org/ns#"
   xmlns:rdf="http://www.w3.org/1999/02/22-rdf-syntax-ns#"
   xmlns:svg="http://www.w3.org/2000/svg"
   xmlns="http://www.w3.org/2000/svg"
   xmlns:sodipodi="http://sodipodi.sourceforge.net/DTD/sodipodi-0.dtd"
   xmlns:inkscape="http://www.inkscape.org/namespaces/inkscape"
   viewBox="0 0 16 16"
   id="svg2"
   version="1.1"
   inkscape:version="0.91 r13725"
   sodipodi:docname="indicator-keyboard-Be-9.svg">
  <metadata
     id="metadata14">
    <rdf:RDF>
      <cc:Work
         rdf:about="">
        <dc:format>image/svg+xml</dc:format>
        <dc:type
           rdf:resource="http://purl.org/dc/dcmitype/StillImage" />
      </cc:Work>
    </rdf:RDF>
  </metadata>
  <defs
     id="defs12" />
  <sodipodi:namedview
     pagecolor="#ffffff"
     bordercolor="#666666"
     borderopacity="1"
     objecttolerance="10"
     gridtolerance="10"
     guidetolerance="10"
     inkscape:pageopacity="0"
     inkscape:pageshadow="2"
     inkscape:window-width="640"
     inkscape:window-height="480"
     id="namedview10"
     showgrid="false"
     inkscape:zoom="14.75"
     inkscape:cx="8"
     inkscape:cy="8"
     inkscape:window-x="65"
     inkscape:window-y="24"
     inkscape:window-maximized="0"
     inkscape:current-layer="svg2" />
  <path
     style="fill:#ececec;fill-opacity:1"
     d="M 1.5996094 0 C 0.71320937 2.9605947e-16 0 0.71320937 0 1.5996094 L 0 14.400391 C 2.9605947e-16 15.286791 0.71320937 16 1.5996094 16 L 14.400391 16 C 15.286791 16 16 15.286791 16 14.400391 L 16 1.5996094 C 16 0.71320937 15.286791 0 14.400391 0 L 1.5996094 0 z M 3.2207031 4.8046875 C 3.5567031 4.8046875 3.8738281 4.8327187 4.1738281 4.8867188 C 4.4798281 4.9407188 4.7466094 5.03025 4.9746094 5.15625 C 5.2026094 5.28225 5.383625 5.4501562 5.515625 5.6601562 C 5.653625 5.8641562 5.7226563 6.1197813 5.7226562 6.4257812 C 5.7226562 6.7617813 5.6349375 7.0490625 5.4609375 7.2890625 C 5.2929375 7.5230625 5.0653438 7.6853906 4.7773438 7.7753906 C 4.9573437 7.8173906 5.1214844 7.8770781 5.2714844 7.9550781 C 5.4214844 8.0330781 5.5539687 8.1357187 5.6679688 8.2617188 C 5.7819688 8.3817188 5.8696875 8.5309375 5.9296875 8.7109375 C 5.9956875 8.8849375 6.0273438 9.0957969 6.0273438 9.3417969 C 6.0273438 9.9297971 5.7941719 10.379406 5.3261719 10.691406 C 4.8581719 10.997406 4.13425 11.150391 3.15625 11.150391 C 3.05425 11.150391 2.934875 11.144813 2.796875 11.132812 C 2.664875 11.126813 2.5268125 11.113703 2.3828125 11.095703 C 2.2448125 11.083703 2.1123281 11.068781 1.9863281 11.050781 C 1.8603281 11.026781 1.7540625 11.002516 1.6640625 10.978516 L 1.6640625 4.9765625 C 1.7720625 4.9465625 1.8914375 4.9222969 2.0234375 4.9042969 C 2.1554375 4.8802969 2.2897344 4.8616094 2.4277344 4.8496094 C 2.5717344 4.8316094 2.7097969 4.8204531 2.8417969 4.8144531 C 2.9797969 4.8084531 3.1067031 4.8046875 3.2207031 4.8046875 z M 3.2207031 5.3261719 C 2.9987031 5.3261719 2.8083438 5.3337031 2.6523438 5.3457031 C 2.5023438 5.3577031 2.3773906 5.372625 2.2753906 5.390625 L 2.2753906 7.5859375 L 3.4628906 7.5859375 C 3.6848906 7.5859375 3.89575 7.5710156 4.09375 7.5410156 C 4.29175 7.5050156 4.4614688 7.4453281 4.6054688 7.3613281 C 4.7554688 7.2713281 4.8730312 7.1537656 4.9570312 7.0097656 C 5.0410312 6.8597656 5.0839844 6.6713594 5.0839844 6.4433594 C 5.0839844 6.2393594 5.0372656 6.0676875 4.9472656 5.9296875 C 4.8572656 5.7856875 4.7285469 5.668125 4.5605469 5.578125 C 4.3985469 5.488125 4.2045625 5.426625 3.9765625 5.390625 C 3.7485625 5.348625 3.4967031 5.3261719 3.2207031 5.3261719 z M 9.0605469 6.3359375 C 9.6305469 6.3359375 10.081968 6.5205781 10.417969 6.8925781 C 10.759969 7.2645781 10.931641 7.8373281 10.931641 8.6113281 C 10.931641 8.6593281 10.929828 8.7078594 10.923828 8.7558594 C 10.923828 8.8038594 10.920063 8.848625 10.914062 8.890625 L 7.6464844 8.890625 C 7.6644844 9.460625 7.8063125 9.8990779 8.0703125 10.205078 C 8.3343125 10.511078 8.7540781 10.664062 9.3300781 10.664062 C 9.6480781 10.664062 9.8999372 10.634219 10.085938 10.574219 C 10.271938 10.514219 10.406234 10.463875 10.490234 10.421875 L 10.599609 10.925781 C 10.515609 10.973781 10.355094 11.029703 10.121094 11.095703 C 9.8930934 11.161703 9.6245 11.195312 9.3125 11.195312 C 8.9045 11.195312 8.5555781 11.135625 8.2675781 11.015625 C 7.9795781 10.895625 7.7426406 10.727719 7.5566406 10.511719 C 7.3706406 10.295719 7.2363437 10.040094 7.1523438 9.7460938 C 7.0683438 9.4460938 7.0253906 9.119625 7.0253906 8.765625 C 7.0253906 8.357625 7.0832656 8.003125 7.1972656 7.703125 C 7.3172656 7.397125 7.47025 7.1415 7.65625 6.9375 C 7.84825 6.7335 8.0646875 6.5842813 8.3046875 6.4882812 C 8.5506875 6.3862812 8.8025469 6.3359375 9.0605469 6.3359375 z M 9.0683594 6.8574219 C 8.8583594 6.8574219 8.6699531 6.8984219 8.5019531 6.9824219 C 8.3399531 7.0664219 8.1963125 7.1802187 8.0703125 7.3242188 C 7.9503125 7.4622188 7.85325 7.6245469 7.78125 7.8105469 C 7.71525 7.9965469 7.6760625 8.1924844 7.6640625 8.3964844 L 10.328125 8.3964844 C 10.316125 7.9104844 10.202328 7.5317187 9.9863281 7.2617188 C 9.7703281 6.9917187 9.4643594 6.8574219 9.0683594 6.8574219 z M 2.2753906 8.1074219 L 2.2753906 10.564453 C 2.3653906 10.576453 2.4996875 10.591375 2.6796875 10.609375 C 2.8596875 10.621375 3.0425156 10.628906 3.2285156 10.628906 C 3.5045156 10.628906 3.7712969 10.610219 4.0292969 10.574219 C 4.2932969 10.538219 4.5246562 10.472953 4.7226562 10.376953 C 4.9206563 10.280953 5.0792187 10.148469 5.1992188 9.9804688 C 5.3192188 9.8124687 5.3808594 9.5960312 5.3808594 9.3320312 C 5.3808594 9.0920312 5.3379063 8.8942812 5.2539062 8.7382812 C 5.1699063 8.5762813 5.0505312 8.449375 4.8945312 8.359375 C 4.7385313 8.263375 4.5463594 8.1981094 4.3183594 8.1621094 C 4.0963594 8.1261094 3.8463125 8.1074219 3.5703125 8.1074219 L 2.2753906 8.1074219 z M 13.039062 8.7539062 C 13.464162 8.7539062 13.785506 8.9047781 14.003906 9.2050781 C 14.226206 9.5014781 14.335938 9.9168718 14.335938 10.451172 C 14.335938 11.266272 14.141953 11.879569 13.751953 12.292969 C 13.361953 12.702469 12.791768 12.908203 12.042969 12.908203 L 12.03125 12.591797 C 12.28865 12.591797 12.525734 12.562406 12.740234 12.503906 C 12.954734 12.445406 13.138923 12.355275 13.294922 12.234375 C 13.454822 12.109575 13.584141 11.952819 13.681641 11.761719 C 13.783041 11.566719 13.851619 11.331594 13.886719 11.058594 C 13.781419 11.113194 13.654059 11.162178 13.505859 11.205078 C 13.357659 11.244078 13.200902 11.263672 13.033203 11.263672 C 12.814803 11.263672 12.628663 11.230363 12.476562 11.164062 C 12.324463 11.093863 12.201022 11.001772 12.107422 10.888672 C 12.013822 10.775572 11.945244 10.646247 11.902344 10.498047 C 11.859444 10.349847 11.839844 10.195056 11.839844 10.035156 C 11.839844 9.8869562 11.861403 9.7360844 11.908203 9.5839844 C 11.955003 9.4318844 12.0275 9.2966812 12.125 9.1757812 C 12.2264 9.0509812 12.3518 8.9490938 12.5 8.8710938 C 12.6521 8.7930937 12.832363 8.7539062 13.039062 8.7539062 z M 13.044922 9.0878906 C 12.900622 9.0878906 12.777181 9.1153219 12.675781 9.1699219 C 12.574381 9.2206219 12.492088 9.2892 12.429688 9.375 C 12.367287 9.4608 12.320263 9.5587751 12.289062 9.671875 C 12.261762 9.784975 12.248047 9.9025374 12.248047 10.023438 C 12.248047 10.331538 12.316625 10.560784 12.453125 10.708984 C 12.593525 10.857184 12.79926 10.929687 13.068359 10.929688 C 13.247759 10.929688 13.402556 10.910094 13.535156 10.871094 C 13.671656 10.828194 13.799016 10.781163 13.916016 10.726562 C 13.919949 10.679762 13.921875 10.634697 13.921875 10.591797 C 13.925808 10.548897 13.927734 10.499913 13.927734 10.445312 C 13.927734 10.262013 13.914019 10.087628 13.886719 9.9238281 C 13.863319 9.7600281 13.816294 9.6169874 13.746094 9.4921875 C 13.679794 9.3673875 13.589663 9.2694188 13.476562 9.1992188 C 13.363463 9.1251188 13.220421 9.0878906 13.044922 9.0878906 z "
     id="path4" />
</svg>

<svg xmlns="http://www.w3.org/2000/svg" viewBox="0 0 16 16">
 <path d="m 1.6 0 c -0.886 0 -1.6 0.713 -1.6 1.6 l 0 12.801 c 0 0.886 0.713 1.6 1.6 1.6 l 12.801 0 c 0.886 0 1.6 -0.713 1.6 -1.6 l 0 -12.801 c 0 -0.886 -0.713 -1.6 -1.6 -1.6 l -12.801 0 z m 1.621 4.805 c 0.336 0 0.653 0.028 0.953 0.082 c 0.306 0.054 0.573 0.144 0.801 0.27 c 0.228 0.126 0.409 0.294 0.541 0.504 c 0.138 0.204 0.207 0.46 0.207 0.766 c 0 0.336 -0.088 0.623 -0.262 0.863 c -0.168 0.234 -0.396 0.396 -0.684 0.486 c 0.18 0.042 0.344 0.102 0.494 0.18 c 0.15 0.078 0.282 0.181 0.396 0.307 c 0.114 0.12 0.202 0.269 0.262 0.449 c 0.066 0.174 0.098 0.385 0.098 0.631 c 0 0.588 -0.233 1.038 -0.701 1.35 c -0.468 0.306 -1.192 0.459 -2.17 0.459 c -0.102 0 -0.221 -0.006 -0.359 -0.018 c -0.132 -0.006 -0.27 -0.019 -0.414 -0.037 c -0.138 -0.012 -0.27 -0.027 -0.396 -0.045 c -0.126 -0.024 -0.232 -0.048 -0.322 -0.072 l 0 -6 c 0.108 -0.03 0.227 -0.054 0.359 -0.072 c 0.132 -0.024 0.266 -0.043 0.404 -0.055 c 0.144 -0.018 0.282 -0.029 0.414 -0.035 c 0.138 -0.006 0.265 -0.01 0.379 -0.01 z m 0 0.521 c -0.222 0 -0.412 0.008 -0.568 0.02 c -0.15 0.012 -0.275 0.027 -0.377 0.045 l 0 2.195 l 1.188 0 c 0.222 0 0.433 -0.015 0.631 -0.045 c 0.198 -0.036 0.368 -0.096 0.512 -0.18 c 0.15 -0.09 0.268 -0.208 0.352 -0.352 c 0.084 -0.15 0.127 -0.338 0.127 -0.566 c 0 -0.204 -0.047 -0.376 -0.137 -0.514 c -0.09 -0.144 -0.219 -0.262 -0.387 -0.352 c -0.162 -0.09 -0.356 -0.152 -0.584 -0.188 c -0.228 -0.042 -0.48 -0.064 -0.756 -0.064 z m 5.84 1.01 c 0.57 0 1.021 0.185 1.357 0.557 c 0.342 0.372 0.514 0.945 0.514 1.719 c 0 0.048 -0.002 0.097 -0.008 0.145 c 0 0.048 -0.004 0.093 -0.01 0.135 l -3.268 0 c 0.018 0.57 0.16 1.01 0.424 1.314 c 0.264 0.306 0.684 0.459 1.26 0.459 c 0.318 0 0.57 -0.03 0.756 -0.09 c 0.186 -0.06 0.32 -0.11 0.404 -0.152 l 0.109 0.504 c -0.084 0.048 -0.245 0.104 -0.479 0.17 c -0.228 0.066 -0.497 0.1 -0.809 0.1 c -0.408 0 -0.757 -0.06 -1.045 -0.18 c -0.288 -0.12 -0.525 -0.288 -0.711 -0.504 c -0.186 -0.216 -0.32 -0.472 -0.404 -0.766 c -0.084 -0.3 -0.127 -0.626 -0.127 -0.98 c 0 -0.408 0.058 -0.762 0.172 -1.063 c 0.12 -0.306 0.273 -0.562 0.459 -0.766 c 0.192 -0.204 0.408 -0.353 0.648 -0.449 c 0.246 -0.102 0.498 -0.152 0.756 -0.152 z m 0.008 0.521 c -0.21 0 -0.398 0.041 -0.566 0.125 c -0.162 0.084 -0.306 0.198 -0.432 0.342 c -0.12 0.138 -0.217 0.3 -0.289 0.486 c -0.066 0.186 -0.105 0.382 -0.117 0.586 l 2.664 0 c -0.012 -0.486 -0.126 -0.865 -0.342 -1.135 c -0.216 -0.27 -0.522 -0.404 -0.918 -0.404 z m -6.793 1.25 l 0 2.457 c 0.09 0.012 0.224 0.027 0.404 0.045 c 0.18 0.012 0.363 0.02 0.549 0.02 c 0.276 0 0.543 -0.019 0.801 -0.055 c 0.264 -0.036 0.495 -0.101 0.693 -0.197 c 0.198 -0.096 0.357 -0.228 0.477 -0.396 c 0.12 -0.168 0.182 -0.384 0.182 -0.648 c 0 -0.24 -0.043 -0.438 -0.127 -0.594 c -0.084 -0.162 -0.203 -0.289 -0.359 -0.379 c -0.156 -0.096 -0.348 -0.161 -0.576 -0.197 c -0.222 -0.036 -0.472 -0.055 -0.748 -0.055 l -1.295 0 z m 10.764 0.646 c 0.425 0 0.746 0.151 0.965 0.451 c 0.222 0.296 0.332 0.712 0.332 1.246 c 0 0.815 -0.194 1.428 -0.584 1.842 c -0.39 0.41 -0.96 0.615 -1.709 0.615 l -0.012 -0.316 c 0.257 0 0.494 -0.029 0.709 -0.088 c 0.215 -0.059 0.399 -0.149 0.555 -0.27 c 0.16 -0.125 0.289 -0.282 0.387 -0.473 c 0.101 -0.195 0.17 -0.43 0.205 -0.703 c -0.105 0.055 -0.233 0.104 -0.381 0.146 c -0.148 0.039 -0.305 0.059 -0.473 0.059 c -0.218 0 -0.405 -0.033 -0.557 -0.1 c -0.152 -0.07 -0.276 -0.162 -0.369 -0.275 c -0.094 -0.113 -0.162 -0.242 -0.205 -0.391 c -0.043 -0.148 -0.063 -0.303 -0.063 -0.463 c 0 -0.148 0.022 -0.299 0.068 -0.451 c 0.047 -0.152 0.119 -0.287 0.217 -0.408 c 0.101 -0.125 0.227 -0.227 0.375 -0.305 c 0.152 -0.078 0.332 -0.117 0.539 -0.117 z m 0.006 0.334 c -0.144 0 -0.268 0.027 -0.369 0.082 c -0.101 0.051 -0.184 0.119 -0.246 0.205 c -0.062 0.086 -0.109 0.184 -0.141 0.297 c -0.027 0.113 -0.041 0.231 -0.041 0.352 c 0 0.308 0.069 0.537 0.205 0.686 c 0.14 0.148 0.346 0.221 0.615 0.221 c 0.179 0 0.334 -0.02 0.467 -0.059 c 0.136 -0.043 0.264 -0.09 0.381 -0.145 c 0.004 -0.047 0.006 -0.092 0.006 -0.135 c 0.004 -0.043 0.006 -0.092 0.006 -0.146 c 0 -0.183 -0.014 -0.358 -0.041 -0.521 c -0.023 -0.164 -0.07 -0.307 -0.141 -0.432 c -0.066 -0.125 -0.156 -0.223 -0.27 -0.293 c -0.113 -0.074 -0.256 -0.111 -0.432 -0.111 z" style="fill:#ececec;fill-opacity:1"/>
</svg>
